!!!OTL: BEGRABT DEN LEIB IN SEINE GRUFT
!!!ARE: Europa, Mitteleuropa, Deutschland
!!!SCT: E2168
!!!YEM: Copyright 1995, estate of Helmut Schaffrath.
**kern
*ICvox
*Ivox
*M4/4
*k[b-]
*F:
{4f
=1
4g
4f
4e
4f
=2
4g
4a
4f}
{4f
=3
4g
4a
4b-
4a
=4
4f
4g
4a}
{4f
=5
4g
4g
4a
4g
=6
4f
4e
4d}
{4g
=7
4a
4g
4f
4d
=8
4f
4g
4f}
==
!!!AGN: geistlich, Moral - Lied, Tod; Choral
!!!ONB: ESAC (Essen Associative Code) Database: ERK3
!!!AMT: simple quadruple
!!!AIN: vox
!!!EED: Helmut Schaffrath
!!!EEV: 1.0
*-
